X: 5988
T: Canadian, The
R: waltz
M: 3/4
K: Gmajor
|:d^cd|e2 d2 B2|G3 ABG|E2 G2 E2|D4 DE|
G2 B2 e2|d2 B2 G2|A3 ^GAB|A3 d^cd|
e2 d2 B2|G3 ABG|E2 G2 g2|e3 fge|
d2 B2 G2|A2 E2 F2|G3 AGF|G3:|
|:GFE|DG BG BG|DG BG BG|DF AF AF|DF AF AF|
DG BG BG|DG BG BA|G2 B2 g2|e3 fge|
d2 B2 G2|A2 E2 F2|G3 AGF|G3:|

